X:521
T: Das faule Gretchen (225b), S. 485
N: T0409
O: Luxemburg
S: Singendes Volk, Esch-Alzette, 1937 posth.]
N: Esch-Alzette, fff Dominik Mller,  1.6.1915
R: Berufslied]
M: 2/4
L: 1/8
K: G
d | Bddd | Bdd
d | dddd | G2z
d | Bddd | Bdd
d | dddd | G2z
A | BBAA | G2z
A | BBAA | G2z2
ded2 | ded
A | BBAA | G2z
A | BBAA | G2z

